apps/16/system-software-update.svg

<?xml version="1.0" encoding="UTF-8" standalone="no"?>
<svg
   xmlns:dc="http://purl.org/dc/elements/1.1/"
   xmlns:cc="http://creativecommons.org/ns#"
   xmlns:rdf="http://www.w3.org/1999/02/22-rdf-syntax-ns#"
   xmlns:svg="http://www.w3.org/2000/svg"
   xmlns="http://www.w3.org/2000/svg"
   xmlns:xlink="http://www.w3.org/1999/xlink"
   version="1.1"
   width="16"
   height="16"
   id="svg7357">
  <defs
     id="defs7359">
    <linearGradient
       x1="23.99999"
       y1="4.999989"
       x2="23.99999"
       y2="43"
       id="linearGradient4224"
       xlink:href="#linearGradient3924-4-8"
       gradientUnits="userSpaceOnUse"
       gradientTransform="matrix(0.2972973,0,0,0.2972973,0.86486973,0.86486734)" />
    <linearGradient
       id="linearGradient3924-4-8">
      <stop
         id="stop3926-0-4"
         style="stop-color:#ffffff;stop-opacity:1"
         offset="0" />
      <stop
         id="stop3928-6-8"
         style="stop-color:#ffffff;stop-opacity:0.23529412"
         offset="0.06316455" />
      <stop
         id="stop3930-2-1"
         style="stop-color:#ffffff;stop-opacity:0.15686275"
         offset="0.95056331" />
      <stop
         id="stop3932-9-0"
         style="stop-color:#ffffff;stop-opacity:0.39215687"
         offset="1" />
    </linearGradient>
    <linearGradient
       x1="223.21748"
       y1="38.0354"
       x2="223.21748"
       y2="47.986877"
       id="linearGradient5882-7"
       xlink:href="#linearGradient5803-0"
       gradientUnits="userSpaceOnUse"
       gradientTransform="translate(-215,-35.000003)" />
    <linearGradient
       id="linearGradient5803-0">
      <stop
         id="stop5805-3"
         style="stop-color:#fff5ef;stop-opacity:1"
         offset="0" />
      <stop
         id="stop5807-4"
         style="stop-color:#fef8dd;stop-opacity:1"
         offset="1" />
    </linearGradient>
    <linearGradient
       id="linearGradient2867-449-88-871-390-598-476-591-434-148-57-177-8-3-3-6-4-8-8-8">
      <stop
         id="stop3750-1-0-7-6-6-1-3-9"
         style="stop-color:#ffcd7d;stop-opacity:1"
         offset="0" />
      <stop
         id="stop3752-3-7-4-0-32-8-923-0"
         style="stop-color:#fc8f36;stop-opacity:1"
         offset="0.26238" />
      <stop
         id="stop3754-1-8-5-2-7-6-7-1"
         style="stop-color:#e23a0e;stop-opacity:1"
         offset="0.704952" />
      <stop
         id="stop3756-1-6-2-6-6-1-96-6"
         style="stop-color:#ac441f;stop-opacity:1"
         offset="1" />
    </linearGradient>
    <radialGradient
       cx="6.7304144"
       cy="9.9571075"
       r="12.671875"
       fx="6.2001843"
       fy="9.9571075"
       id="radialGradient7347"
       xlink:href="#linearGradient2867-449-88-871-390-598-476-591-434-148-57-177-8-3-3-6-4-8-8-8"
       gradientUnits="userSpaceOnUse"
       gradientTransform="matrix(0,3.1658508,-3.8866533,0,46.97684,-26.720326)" />
    <linearGradient
       x1="23.99999"
       y1="4.999989"
       x2="23.99999"
       y2="43"
       id="linearGradient3007"
       xlink:href="#linearGradient3924-4-8"
       gradientUnits="userSpaceOnUse"
       gradientTransform="matrix(0.2972973,0,0,0.2972973,0.86486973,0.86486734)" />
    <radialGradient
       cx="6.7304144"
       cy="9.9571075"
       r="12.671875"
       fx="6.2001843"
       fy="9.9571075"
       id="radialGradient3015"
       xlink:href="#linearGradient2867-449-88-871-390-598-476-591-434-148-57-177-8-3-3-6-4-8-8-8"
       gradientUnits="userSpaceOnUse"
       gradientTransform="matrix(0,3.1658508,-3.8866533,0,46.97684,-26.720326)" />
    <radialGradient
       cx="6.7304144"
       cy="9.9571075"
       r="12.671875"
       fx="6.2001843"
       fy="9.9571075"
       id="radialGradient4045"
       xlink:href="#linearGradient2867-449-88-871-390-598-476-591-434-148-57-177-8-3-3-6-4-8-8-8-2"
       gradientUnits="userSpaceOnUse"
       gradientTransform="matrix(0,6.0881746,-7.4743333,0,90.95548,-49.769855)" />
    <linearGradient
       id="linearGradient2867-449-88-871-390-598-476-591-434-148-57-177-8-3-3-6-4-8-8-8-2">
      <stop
         id="stop3750-1-0-7-6-6-1-3-9-3"
         style="stop-color:#ffcd7d;stop-opacity:1"
         offset="0" />
      <stop
         id="stop3752-3-7-4-0-32-8-923-0-0"
         style="stop-color:#fc8f36;stop-opacity:1"
         offset="0.26238" />
      <stop
         id="stop3754-1-8-5-2-7-6-7-1-0"
         style="stop-color:#e23a0e;stop-opacity:1"
         offset="0.704952" />
      <stop
         id="stop3756-1-6-2-6-6-1-96-6-7"
         style="stop-color:#ac441f;stop-opacity:1"
         offset="1" />
    </linearGradient>
    <linearGradient
       id="linearGradient3702-501-757-3">
      <stop
         id="stop2895-3"
         style="stop-color:#181818;stop-opacity:0"
         offset="0" />
      <stop
         id="stop2897-28"
         style="stop-color:#181818;stop-opacity:1"
         offset="0.5" />
      <stop
         id="stop2899-8"
         style="stop-color:#181818;stop-opacity:0"
         offset="1" />
    </linearGradient>
    <linearGradient
       x1="25.058096"
       y1="47.027729"
       x2="25.058096"
       y2="39.999443"
       id="linearGradient2980"
       xlink:href="#linearGradient3702-501-757-3"
       gradientUnits="userSpaceOnUse" />
    <linearGradient
       id="linearGradient3688-464-309-7">
      <stop
         id="stop2889-0"
         style="stop-color:#181818;stop-opacity:1"
         offset="0" />
      <stop
         id="stop2891-66"
         style="stop-color:#181818;stop-opacity:0"
         offset="1" />
    </linearGradient>
    <radialGradient
       cx="4.9929786"
       cy="43.5"
       r="2.5"
       fx="4.9929786"
       fy="43.5"
       id="radialGradient2978"
       xlink:href="#linearGradient3688-464-309-7"
       gradientUnits="userSpaceOnUse"
       gradientTransform="matrix(2.003784,0,0,1.4,-20.01187,-104.4)" />
    <linearGradient
       id="linearGradient3688-166-749-6">
      <stop
         id="stop2883-8"
         style="stop-color:#181818;stop-opacity:1"
         offset="0" />
      <stop
         id="stop2885-3"
         style="stop-color:#181818;stop-opacity:0"
         offset="1" />
    </linearGradient>
    <radialGradient
       cx="4.9929786"
       cy="43.5"
       r="2.5"
       fx="4.9929786"
       fy="43.5"
       id="radialGradient2976"
       xlink:href="#linearGradient3688-166-749-6"
       gradientUnits="userSpaceOnUse"
       gradientTransform="matrix(2.003784,0,0,1.4,27.98813,-17.4)" />
    <linearGradient
       id="linearGradient3924-0">
      <stop
         id="stop3926-6"
         style="stop-color:#ffffff;stop-opacity:1"
         offset="0" />
      <stop
         id="stop3928-3"
         style="stop-color:#ffffff;stop-opacity:0.23529412"
         offset="0.06316455" />
      <stop
         id="stop3930-2"
         style="stop-color:#ffffff;stop-opacity:0.15686275"
         offset="0.95056331" />
      <stop
         id="stop3932-62"
         style="stop-color:#ffffff;stop-opacity:0.39215687"
         offset="1" />
    </linearGradient>
    <linearGradient
       x1="23.99999"
       y1="4.999989"
       x2="23.99999"
       y2="43"
       id="linearGradient3046"
       xlink:href="#linearGradient3924-0"
       gradientUnits="userSpaceOnUse"
       gradientTransform="matrix(0.62162164,0,0,0.62162164,1.0810794,2.0810903)" />
    <linearGradient
       id="linearGradient5803-2-1">
      <stop
         id="stop5805-1-6"
         style="stop-color:#fff5ef;stop-opacity:1"
         offset="0" />
      <stop
         id="stop5807-6-6"
         style="stop-color:#fef8dd;stop-opacity:1"
         offset="1" />
    </linearGradient>
    <linearGradient
       x1="167.98311"
       y1="8.50811"
       x2="167.98311"
       y2="54.780239"
       id="linearGradient3153"
       xlink:href="#linearGradient5803-2-1"
       gradientUnits="userSpaceOnUse"
       gradientTransform="matrix(0.444007,0,0,0.444007,-57.047895,2.7917769)" />
    <linearGradient
       x1="167.98311"
       y1="8.50811"
       x2="167.98311"
       y2="54.780239"
       id="linearGradient3105"
       xlink:href="#linearGradient5803-2-1"
       gradientUnits="userSpaceOnUse"
       gradientTransform="matrix(0.2220035,0,0,0.2220035,-28.523947,0.8958884)" />
    <linearGradient
       x1="23.99999"
       y1="4.999989"
       x2="23.99999"
       y2="43"
       id="linearGradient3111"
       xlink:href="#linearGradient3924-0"
       gradientUnits="userSpaceOnUse"
       gradientTransform="matrix(0.62162164,0,0,0.62162164,18.708198,-5.8595878)" />
    <radialGradient
       cx="6.7304144"
       cy="9.9571075"
       r="12.671875"
       fx="6.2001843"
       fy="9.9571075"
       id="radialGradient3119"
       xlink:href="#linearGradient2867-449-88-871-390-598-476-591-434-148-57-177-8-3-3-6-4-8-8-8-2"
       gradientUnits="userSpaceOnUse"
       gradientTransform="matrix(0,6.0881746,-7.4743333,0,108.5826,-57.710533)" />
  </defs>
  <metadata
     id="metadata7362">
    <rdf:RDF>
      <cc:Work
         rdf:about="">
        <dc:format>image/svg+xml</dc:format>
        <dc:type
           rdf:resource="http://purl.org/dc/dcmitype/StillImage" />
        <dc:title />
      </cc:Work>
    </rdf:RDF>
  </metadata>
  <rect
     width="13.000003"
     height="13.000003"
     rx="1"
     ry="1"
     x="1.5"
     y="1.4999971"
     id="rect5505-21-2"
     style="color:#000000;fill:url(#radialGradient3015);fill-opacity:1;fill-rule:nonzero;stroke:none;stroke-width:0.99999994;marker:none;visibility:visible;display:inline;overflow:visible;enable-background:accumulate" />
  <rect
     width="11"
     height="11"
     x="2.5"
     y="2.4999971"
     id="rect6741-0-3"
     style="opacity:0.5;fill:none;stroke:url(#linearGradient3007);stroke-width:1;stroke-linecap:round;stroke-linejoin:round;stroke-miterlimit:4;stroke-opacity:1;stroke-dasharray:none;stroke-dashoffset:0" />
  <rect
     width="13.000003"
     height="13.000003"
     rx="1"
     ry="1"
     x="1.5"
     y="1.4999971"
     id="rect5505-21-2-8"
     style="opacity:0.4;color:#000000;fill:none;stroke:#640000;stroke-width:1;stroke-linecap:round;stroke-linejoin:round;stroke-miterlimit:4;stroke-opacity:1;stroke-dasharray:none;stroke-dashoffset:0;marker:none;visibility:visible;display:inline;overflow:visible;enable-background:accumulate" />
  <path
     d="m 8.0000146,4.0000302 c -2.3274844,0 -4.2881255,1.5832667 -4.843191,3.7456333 a 0.54551282,0.54551282 0 0 0 0.5226466,0.6794411 l 1.1672444,0 A 0.54551282,0.54551282 0 0 0 5.3693613,8.0592513 C 5.7530035,6.9729035 6.7755402,6.1951458 8.0000146,6.1951458 c 0.5742944,0 1.0735833,0.2204055 1.5156755,0.5226466 l -0.78397,0.78397 a 0.54551282,0.54551282 0 0 0 0.3832745,0.9233422 l 3.3449364,0 A 0.54551282,0.54551282 0 0 0 13,7.8850357 L 13,4.540098 A 0.54551282,0.54551282 0 0 0 12.076658,4.1568247 L 11.083629,5.1498524 C 10.226621,4.4644669 9.1806112,4.0000302 8.0000146,4.0000302 z M 3.4355691,9.5749268 A 0.54551282,0.54551282 0 0 0 3.0000302,10.114995 l 0,3.344937 a 0.54551282,0.54551282 0 0 0 0.9233422,0.383274 L 4.9164002,12.850178 C 5.7734091,13.535563 6.8194179,14 8.0000146,14 10.3275,14 12.288141,12.416736 12.843205,10.254367 A 0.54551282,0.54551282 0 0 0 12.320559,9.5749268 l -1.167244,0 A 0.54551282,0.54551282 0 0 0 10.630669,9.940779 c -0.383644,1.086348 -1.40618,1.864105 -2.6306544,1.864105 -0.5742933,0 -1.0735822,-0.220404 -1.5156744,-0.522646 l 0.78397,-0.783969 A 0.54551282,0.54551282 0 0 0 6.8850357,9.5749268 l -3.3449377,0 a 0.54551282,0.54551282 0 0 0 -0.1045333,0 z"
     id="path3225"
     style="opacity:0.15;color:#000000;fill:#ae2109;fill-opacity:1;fill-rule:nonzero;stroke:none;stroke-width:1;marker:none;visibility:visible;display:inline;overflow:visible;enable-background:accumulate" />
  <path
     d="M 8,5 C 6.135266,5 4.568178,6.273512 4.125,8 L 5.171875,8 C 5.5835,6.834416 6.693501,6 8,6 8.828737,6 9.566855,6.347593 10.109375,6.890625 L 9,8 12,8 12,5 10.828125,6.171875 C 10.104357,5.450193 9.103301,5 8,5 z m -4,5 0,3 1.171875,-1.171875 C 5.895643,12.549807 6.896699,13 8,13 c 1.864734,0 3.431822,-1.273512 3.875,-3 l -1.046875,0 C 10.4165,11.165584 9.306498,12 8,12 7.171262,12 6.433145,11.652406 5.890625,11.109375 L 7,10 z"
     id="path3059-0-0"
     style="opacity:0.3;color:#000000;fill:#ae2109;fill-opacity:1;fill-rule:nonzero;stroke:none;stroke-width:1;marker:none;visibility:visible;display:inline;overflow:visible;enable-background:accumulate" />
  <path
     d="M 8,4 C 6.135266,4 4.568178,5.273512 4.125,7 L 5.171875,7 C 5.5835,5.834416 6.693501,5 8,5 8.828737,5 9.566855,5.347593 10.109375,5.890625 L 9,7 12,7 12,4 10.828125,5.171875 C 10.104357,4.4501927 9.103301,4 8,4 z M 4,9 4,12 5.171875,10.828125 C 5.895643,11.549807 6.896699,12 8,12 9.864734,12 11.431822,10.726488 11.875,9 L 10.828125,9 C 10.4165,10.165584 9.306498,11 8,11 7.171262,11 6.433145,10.652407 5.890625,10.109375 L 7,9 z"
     id="path3059-0"
     style="color:#000000;fill:url(#linearGradient3105);fill-opacity:1;fill-rule:nonzero;stroke:none;stroke-width:1.00000012px;marker:none;visibility:visible;display:inline;overflow:visible;enable-background:accumulate" />
</svg>

<svg xmlns="http://www.w3.org/2000/svg" xmlns:xlink="http://www.w3.org/1999/xlink" viewBox="0 0 16 16"><defs><linearGradient id="a"><stop offset="0" stop-color="#fff"/><stop offset=".063" stop-color="#fff" stop-opacity=".235"/><stop offset=".951" stop-color="#fff" stop-opacity=".157"/><stop offset="1" stop-color="#fff" stop-opacity=".392"/></linearGradient><linearGradient id="b"><stop offset="0" stop-color="#ffcd7d"/><stop offset=".262" stop-color="#fc8f36"/><stop offset=".705" stop-color="#e23a0e"/><stop offset="1" stop-color="#ac441f"/></linearGradient><linearGradient x1="24" y1="5" x2="24" y2="43" id="e" xlink:href="#a" gradientUnits="userSpaceOnUse" gradientTransform="translate(.865 .865) scale(.2973)"/><radialGradient cx="6.73" cy="9.957" r="12.672" fx="6.2" fy="9.957" id="d" xlink:href="#b" gradientUnits="userSpaceOnUse" gradientTransform="matrix(0 3.16585 -3.88665 0 46.977 -26.72)"/><linearGradient id="c"><stop offset="0" stop-color="#fff5ef"/><stop offset="1" stop-color="#fef8dd"/></linearGradient><linearGradient x1="167.983" y1="8.508" x2="167.983" y2="54.78" id="f" xlink:href="#c" gradientUnits="userSpaceOnUse" gradientTransform="matrix(.222 0 0 .222 -28.524 .896)"/></defs><rect width="13" height="13" rx="1" ry="1" x="1.5" y="1.5" color="#000" fill="url(#d)" overflow="visible"/><path opacity=".5" fill="none" stroke="url(#e)" stroke-linecap="round" stroke-linejoin="round" d="M2.5 2.5h11v11h-11z"/><rect width="13" height="13" rx="1" ry="1" x="1.5" y="1.5" opacity=".4" color="#000" fill="none" stroke="#640000" stroke-linecap="round" stroke-linejoin="round" overflow="visible"/><path d="M8 4a4.995 4.995 0 0 0-4.843 3.746.546.546 0 0 0 .522.68h1.163a.546.546 0 0 0 .522-.367A2.782 2.782 0 0 1 8 6.19c.574 0 1.074.22 1.516.523l-.784.784a.546.546 0 0 0 .383.923h3.345a.546.546 0 0 0 .54-.54V4.54a.546.546 0 0 0-.923-.383l-.993.993C10.227 4.464 9.18 4 8 4zM3.436 9.575a.546.546 0 0 0-.436.54v3.345a.546.546 0 0 0 .923.383l.993-.993C5.773 13.536 6.82 14 8 14a4.995 4.995 0 0 0 4.843-3.746.546.546 0 0 0-.522-.68h-1.163a.546.546 0 0 0-.522.367A2.782 2.782 0 0 1 8 11.81c-.574 0-1.074-.22-1.516-.523l.784-.784a.546.546 0 0 0-.383-.923H3.54a.546.546 0 0 0-.104 0z" opacity=".15" color="#000" fill="#ae2109" overflow="visible"/><path d="M8 5a4 4 0 0 0-3.875 3h1.047A3 3 0 0 1 8 6c.83 0 1.567.348 2.11.89L9 8h3V5l-1.172 1.172A3.998 3.998 0 0 0 8 5zm-4 5v3l1.172-1.172A4 4 0 0 0 11.875 10h-1.047A3 3 0 0 1 8 12a2.97 2.97 0 0 1-2.11-.89L7 10z" opacity=".3" color="#000" fill="#ae2109" overflow="visible"/><path d="M8 4a4 4 0 0 0-3.875 3h1.047A3 3 0 0 1 8 5c.83 0 1.567.348 2.11.89L9 7h3V4l-1.172 1.172A3.998 3.998 0 0 0 8 4zM4 9v3l1.172-1.172A4 4 0 0 0 11.875 9h-1.047A3 3 0 0 1 8 11a2.97 2.97 0 0 1-2.11-.89L7 9z" color="#000" fill="url(#f)" overflow="visible"/></svg>
